icons/branding/deprecated-firefox.svg

<!-- This Source Code Form is subject to the terms of the Mozilla Public
   - License, v. 2.0. If a copy of the MPL was not distributed with this
   - file, You can obtain one at http://mozilla.org/MPL/2.0/. -->
<svg xmlns="http://www.w3.org/2000/svg" width="32" height="32" viewBox="0 0 32 32">
  <path fill="#ff9500" d="M28.924 21.127c.023-.179.025-.347.005-.501-.428.733-1.085 1.399-1.701 2.279.752-.484 1.396-1.039 1.696-1.778zm1.173-7.203a8.594 8.594 0 0 0-.061-.53 7.01 7.01 0 0 0-.308-1.318l.019.079-.016-.048s-.117.365-.296.963c-.012 1.22-.145 2.347-.341 3.198.325-.306.563-.669.726-1.072a3.395 3.395 0 0 1-.3.751 3.227 3.227 0 0 1-1.02 1.077 5.76 5.76 0 0 0 .125-.393l.002-.005.03-.113a13.556 13.556 0 0 0 .535-2.615 11.583 11.583 0 0 0-.088-3.154 9.471 9.471 0 0 0-.392-1.524 8.695 8.695 0 0 0-.796-1.676l-.063-.108a8.06 8.06 0 0 0-.283-.442c-.312-.451-.631-.794-.896-.981l.058.068c-.05-.048-.079-.073-.079-.073l.08.448c-.764-1.238-1.926-1.821-1.926-1.821s.095.31.243.756c.691.558 1.295 1.18 1.819 1.836l.006.034.098.565a12.549 12.549 0 0 0-.29-.375 13.343 13.343 0 0 0-4.072-3.672c.014.004-.011-.003.002.001A12.993 12.993 0 0 0 16.039 2C12.495 2 9.273 3.423 6.88 5.744c-.066.065.391.526.524.567a5.23 5.23 0 0 1 2.019-.191c.282-.223.24-.157.538-.351l.003.003a11.128 11.128 0 0 1 6.071-1.79c2.007 0 3.934.528 5.634 1.521a8.603 8.603 0 0 1 1.513.588 9.452 9.452 0 0 0-1.421-1.909c1.55 1.182 2.389 2.243 2.94 3.214a10.554 10.554 0 0 1 .398.781c-.529-.559-1.346-1.135-2.06-1.405a3.517 3.517 0 0 0-.171-.06 2.094 2.094 0 0 0-.454-.095c1.136.871 2.993 3.361 3.018 7.127v.063c0 .203-.004.409-.015.62-.21-.456-.54-1.087-.855-1.558a4.484 4.484 0 0 0-.232-.318 1.955 1.955 0 0 0-.187-.205c.336 3.171.181 4.404-.027 5.305l-.059.243c-.042.164-.084.322-.123.484a2.882 2.882 0 0 0-.06-.338 3.63 3.63 0 0 0-.208-.616 14.341 14.341 0 0 1-.063-.144s-.022.574-.278 1.5c-.126.454-.307.991-.571 1.587-.46 1.041-.931 1.536-1.253 1.695a.435.435 0 0 1-.259.055c-.075-.005-.116-.038-.115-.041.008-.075.016-.15.019-.222a.697.697 0 0 0-.027-.261s-.257.091-.422.331a1.28 1.28 0 0 1-.266.279c-.02.016.183-.267.168-.254-.1.084-.207.181-.314.296-.115.123-.226.249-.331.364-.255.278-.471.486-.602.392a.436.436 0 0 0 .22-.183.812.812 0 0 0 .127-.318c-.155.112-.547.414-1.427.549-.163.025-.565.097-1.145.072-.703-.031-1.667-.205-2.782-.78.233-.028.558-.1.851-.029a.761.761 0 0 1 .228.093.62.62 0 0 0-.109-.095c-.382-.273-1.103-.226-1.634-.399-.511-.167-1.178-.906-1.562-1.28a6.03 6.03 0 0 0 .733.134c.156.019.312.033.467.04 1.167.051 2.276-.236 2.994-.742.972-.686 1.548-1.187 2.065-1.069a.611.611 0 0 0 .205.013.47.47 0 0 0 .419-.566.717.717 0 0 0-.166-.337 2.584 2.584 0 0 0-1.562-.839 2.836 2.836 0 0 0-1.132.068c-.757.195-1.431.714-2.318.718a2.515 2.515 0 0 1-.978-.201 3.427 3.427 0 0 1-.266-.122c-.091-.047.297.055.201-.003-.273-.104-.77-.339-.893-.428-.02-.015.206.042.182.027-1.349-.823-1.261-1.482-1.261-1.889 0-.165.049-.358.144-.536.093-.176.23-.336.409-.438a2.769 2.769 0 0 1 .315.137l-.033-.052a2.09 2.09 0 0 0-.114-.16.647.647 0 0 1 .041-.013c.094.033.258.095.414.159.107.044.21.089.283.127.246.127.328.257.328.257s.058-.037-.002-.167a.67.67 0 0 0-.075-.119 1.07 1.07 0 0 0-.28-.244l.012-.001c.128.052.263.118.412.205l.024-.106.004-.014.006-.024.021-.092a1.592 1.592 0 0 0 .022-.623c-.045-.285-.039-.358-.108-.462-.059-.088.016-.127.108-.048a1.31 1.31 0 0 0-.09-.211l.001-.003a.345.345 0 0 1 .094-.143c.013-.015.029-.03.045-.046l.049-.045c.52-.46 1.943-1.234 2.069-1.33.21-.16.424-.408.558-.693.042-.078.078-.172.105-.282a1.84 1.84 0 0 0 .043-.531c-.008-.173-.077-.303-.697-.369-.333-.035-.826-.052-1.555-.047h-.08c-.592.005-.977-.35-1.209-.688-.048-.074-.089-.144-.127-.207a2.263 2.263 0 0 1-.112-.245 4.841 4.841 0 0 1 1.585-2.488c.049-.043-.193.028-.147-.016.055-.053.397-.222.461-.259.039-.023-.041-.062-.176-.09l-.025-.004a1.506 1.506 0 0 0-.56.003c-.391.083-.467.131-.669.238.082-.087.347-.225.282-.211-.424.098-.924.386-1.35.697a.566.566 0 0 1 .008-.135c-.201.107-.686.493-.81.787 0-.064 0-.096-.008-.167-.126.12-.248.26-.36.415l-.031.041a.018.018 0 0 1-.005.007 6.613 6.613 0 0 0-.973-.176 5.403 5.403 0 0 0-2.263.227c-.214-.161-.558-.407-1.101-1.272-.033-.052-.036.119-.066.064-.158-.294-.299-.742-.368-1.15a3.055 3.055 0 0 1-.044-.403s-.164.099-.341.4a2.438 2.438 0 0 0-.236.55 3.565 3.565 0 0 1-.098.281c-.009.022.017-.238.007-.218-.016.035-.044.077-.074.125a1.15 1.15 0 0 0-.134.282c-.03.125-.079.201-.099.357a.03.03 0 0 1-.004.01L4.231 6.2c-.002-.048-.006-.095-.013-.077-.1.274-.194.589-.27.944a8.572 8.572 0 0 0-.155 2.301c-.001.035.002.07.004.104.003.042.006.083.005.122-.341.484-.563.9-.649 1.105a7.59 7.59 0 0 0-.26.585c-.329.818-.652 1.95-.924 3.529 0 0 .231-.752.692-1.603-.34 1.072-.606 2.74-.45 5.242.004-.055.037-.351.111-.792.038-.225.086-.487.148-.775l.012.196a13.733 13.733 0 0 0 .125 1.167 13.14 13.14 0 0 0 1.59 4.563c.957 1.691 3.479 5.619 9.808 7.089a2.995 2.995 0 0 1-.481-.19 2.828 2.828 0 0 1-.645-.43s.201.066.528.159c.674.191 1.883.492 2.981.551.198.01.393.014.58.006-.54-.096-.648-.365-.648-.365s4.913.286 7.465-1.794c.05-.041.1-.083.149-.126l.011-.005c.382-.327.661-.685.81-1.031-.119.059-.237.114-.352.166-.378.41-.839.745-1.348 1.019a7.318 7.318 0 0 1-1.306.248 5.154 5.154 0 0 1-.43.025c.275-.261.638-.452 1.068-.638.637-.276 1.424-.54 2.296-.999l.006-.003.156-.084a10.2 10.2 0 0 0 2.399-1.824c.794-.806 1.183-1.502 1.399-2.137.06-.178.107-.351.145-.52.064-.283.105-.556.146-.824V21.1l-.001.005a3.966 3.966 0 0 1-.023.116c-.239 1.046-1.113 1.751-2.116 2.364-.186.113-.377.223-.568.332.113-.221.233-.426.356-.623l.01-.015-.006.014a4.64 4.64 0 0 0-.036.074l.053-.084c.195-.31.409-.614.629-.911.528-.683 1.046-1.254 1.389-1.882.051-.093.105-.198.161-.313.021-.043.043-.087.064-.134a12.891 12.891 0 0 0 1.251-4.526 9.852 9.852 0 0 0 0-1.593z"/>
</svg>

<?xml version="1.0" encoding="utf-8"?>
<!-- This Source Code Form is subject to the terms of the Mozilla Public
   - License, v. 2.0. If a copy of the MPL was not distributed with this
   - file, You can obtain one at http://mozilla.org/MPL/2.0/. -->
<svg xmlns="http://www.w3.org/2000/svg" width="32" height="32" viewBox="0 0 32 32">
  <path fill="#ff9500" d="M26.797,6.125 C26.719,6.050 26.674,6.013 26.674,6.013 C26.715,6.045 26.756,6.082 26.797,6.125 M28.924,21.127 C28.947,20.948 28.949,20.780 28.929,20.626 C28.501,21.359 27.844,22.025 27.228,22.905 C27.980,22.421 28.624,21.866 28.924,21.127 ZM30.097,13.924 C30.082,13.747 30.062,13.570 30.036,13.394 C29.974,12.946 29.875,12.504 29.728,12.076 C29.735,12.102 29.741,12.129 29.747,12.155 C29.737,12.124 29.731,12.107 29.731,12.107 C29.731,12.107 29.614,12.472 29.435,13.070 C29.423,14.290 29.290,15.417 29.094,16.268 C29.419,15.962 29.657,15.599 29.820,15.196 C29.748,15.461 29.649,15.713 29.520,15.947 C29.361,16.217 29.182,16.436 29.009,16.610 C28.821,16.797 28.641,16.932 28.500,17.024 C28.543,16.905 28.585,16.773 28.625,16.631 C28.626,16.629 28.626,16.628 28.627,16.626 C28.637,16.590 28.647,16.552 28.657,16.513 C28.761,16.176 28.854,15.828 28.934,15.474 C29.049,14.961 29.137,14.433 29.192,13.898 C29.300,12.857 29.284,11.787 29.104,10.744 C29.015,10.227 28.886,9.717 28.712,9.220 C28.480,8.559 28.197,8.001 27.916,7.544 C27.895,7.508 27.874,7.472 27.853,7.436 C27.760,7.280 27.665,7.132 27.570,6.994 C27.258,6.543 26.939,6.200 26.674,6.013 C26.715,6.045 26.756,6.082 26.797,6.125 C26.719,6.050 26.674,6.013 26.674,6.013 C26.694,6.035 26.712,6.058 26.732,6.081 C26.682,6.033 26.653,6.008 26.653,6.008 C26.653,6.008 26.682,6.170 26.733,6.456 C25.969,5.218 24.807,4.635 24.807,4.635 C24.807,4.635 24.902,4.945 25.050,5.391 C25.741,5.949 26.345,6.571 26.869,7.227 C26.871,7.238 26.873,7.250 26.875,7.261 C26.905,7.435 26.938,7.624 26.973,7.826 C26.880,7.700 26.782,7.575 26.683,7.451 C25.589,5.958 24.211,4.706 22.611,3.779 C22.625,3.783 22.600,3.776 22.613,3.780 C20.672,2.647 18.429,2.000 16.039,2.000 C12.495,2.000 9.273,3.423 6.880,5.744 C6.814,5.809 7.271,6.270 7.404,6.311 C8.081,6.106 8.838,6.051 9.423,6.120 C9.705,5.897 9.663,5.963 9.961,5.769 L9.964,5.772 C11.767,4.606 13.854,3.982 16.035,3.982 C18.042,3.982 19.969,4.510 21.669,5.503 C22.118,5.635 22.683,5.830 23.182,6.091 C22.663,5.187 22.132,4.560 21.761,4.182 C23.311,5.364 24.150,6.425 24.701,7.396 C24.746,7.475 24.789,7.553 24.830,7.631 C24.928,7.816 25.017,7.998 25.099,8.177 C24.570,7.618 23.753,7.042 23.039,6.772 C22.981,6.750 22.924,6.730 22.868,6.712 C22.708,6.662 22.555,6.628 22.414,6.617 C23.550,7.488 25.407,9.978 25.432,13.744 C25.432,13.765 25.432,13.786 25.432,13.807 C25.432,14.010 25.428,14.216 25.417,14.427 C25.207,13.971 24.877,13.340 24.562,12.869 C24.483,12.751 24.405,12.644 24.330,12.551 C24.265,12.471 24.202,12.400 24.143,12.346 C24.479,15.517 24.324,16.750 24.116,17.651 C24.096,17.734 24.077,17.815 24.057,17.894 C24.015,18.058 23.973,18.216 23.934,18.378 C23.920,18.257 23.899,18.145 23.874,18.040 C23.816,17.791 23.735,17.585 23.666,17.424 C23.643,17.372 23.621,17.322 23.603,17.280 C23.603,17.280 23.581,17.854 23.325,18.780 C23.199,19.234 23.018,19.771 22.754,20.367 C22.294,21.408 21.823,21.903 21.501,22.062 C21.397,22.113 21.309,22.129 21.242,22.117 C21.167,22.112 21.126,22.079 21.127,22.076 C21.135,22.001 21.143,21.926 21.146,21.854 C21.150,21.754 21.145,21.662 21.119,21.593 C21.119,21.593 20.862,21.684 20.697,21.924 C20.630,22.020 20.544,22.115 20.431,22.203 C20.411,22.219 20.614,21.936 20.599,21.949 C20.499,22.033 20.392,22.130 20.285,22.245 C20.170,22.368 20.059,22.494 19.954,22.609 C19.699,22.887 19.483,23.095 19.352,23.001 C19.437,22.975 19.513,22.906 19.572,22.818 C19.635,22.726 19.680,22.613 19.699,22.500 C19.544,22.612 19.152,22.914 18.272,23.049 C18.109,23.074 17.707,23.146 17.127,23.121 C16.424,23.090 15.460,22.916 14.345,22.341 C14.578,22.313 14.903,22.241 15.196,22.312 C15.275,22.331 15.352,22.360 15.424,22.405 C15.392,22.369 15.355,22.338 15.315,22.310 C14.933,22.037 14.212,22.084 13.681,21.911 C13.170,21.744 12.503,21.005 12.119,20.631 C12.263,20.667 12.407,20.696 12.551,20.721 C12.652,20.738 12.752,20.753 12.852,20.765 C13.008,20.784 13.164,20.798 13.319,20.805 C14.486,20.856 15.595,20.569 16.313,20.063 C17.285,19.377 17.861,18.876 18.378,18.994 C18.428,19.006 18.476,19.010 18.522,19.010 C18.543,19.010 18.563,19.009 18.583,19.007 C18.867,18.975 19.053,18.730 19.002,18.441 C18.983,18.332 18.931,18.217 18.836,18.104 C18.561,17.778 18.016,17.375 17.274,17.265 C16.935,17.215 16.556,17.226 16.142,17.333 C15.385,17.528 14.711,18.047 13.824,18.051 C13.526,18.053 13.204,17.996 12.846,17.850 C12.759,17.815 12.671,17.774 12.580,17.728 C12.489,17.681 12.877,17.783 12.781,17.725 C12.508,17.621 12.011,17.386 11.888,17.297 C11.868,17.282 12.094,17.339 12.070,17.324 C10.721,16.501 10.809,15.842 10.809,15.435 C10.809,15.270 10.858,15.077 10.953,14.899 C11.046,14.723 11.183,14.563 11.362,14.461 C11.475,14.502 11.562,14.541 11.616,14.567 C11.655,14.586 11.677,14.598 11.677,14.598 C11.677,14.598 11.664,14.576 11.644,14.546 C11.613,14.499 11.565,14.428 11.530,14.386 C11.544,14.381 11.557,14.377 11.571,14.373 C11.665,14.406 11.829,14.468 11.985,14.532 C12.092,14.576 12.195,14.621 12.268,14.659 C12.514,14.786 12.596,14.916 12.596,14.916 C12.596,14.916 12.654,14.879 12.594,14.749 C12.583,14.726 12.560,14.683 12.519,14.630 C12.465,14.561 12.378,14.473 12.239,14.386 C12.244,14.386 12.248,14.385 12.251,14.385 C12.379,14.437 12.514,14.503 12.663,14.590 C12.670,14.555 12.679,14.520 12.687,14.484 C12.688,14.479 12.690,14.475 12.691,14.470 C12.693,14.462 12.695,14.454 12.697,14.446 C12.704,14.416 12.711,14.385 12.718,14.354 C12.730,14.301 12.740,14.245 12.748,14.185 C12.764,14.058 12.768,13.913 12.740,13.731 C12.695,13.446 12.701,13.373 12.632,13.269 C12.573,13.181 12.648,13.142 12.740,13.221 C12.718,13.151 12.687,13.081 12.650,13.010 C12.650,13.009 12.651,13.009 12.651,13.007 C12.659,12.968 12.693,12.919 12.745,12.864 C12.758,12.849 12.774,12.834 12.790,12.818 C12.805,12.803 12.821,12.789 12.839,12.773 C13.359,12.313 14.782,11.539 14.908,11.443 C15.118,11.283 15.332,11.035 15.466,10.750 C15.508,10.672 15.544,10.578 15.571,10.468 C15.606,10.323 15.625,10.149 15.614,9.937 C15.606,9.764 15.537,9.634 14.917,9.568 C14.584,9.533 14.091,9.516 13.362,9.521 C13.335,9.521 13.309,9.521 13.282,9.521 C12.690,9.526 12.305,9.171 12.073,8.833 C12.025,8.759 11.984,8.689 11.946,8.626 C11.895,8.532 11.861,8.448 11.834,8.381 C11.917,8.070 12.028,7.772 12.165,7.489 C12.456,6.890 12.871,6.355 13.419,5.893 C13.468,5.850 13.226,5.921 13.272,5.877 C13.327,5.824 13.669,5.655 13.733,5.618 C13.772,5.595 13.692,5.556 13.557,5.528 C13.549,5.527 13.541,5.525 13.532,5.524 C13.380,5.496 13.167,5.485 12.972,5.527 C12.581,5.610 12.505,5.658 12.303,5.765 C12.385,5.678 12.650,5.540 12.585,5.554 C12.161,5.652 11.661,5.940 11.235,6.251 C11.231,6.211 11.235,6.179 11.243,6.116 C11.042,6.223 10.557,6.609 10.433,6.903 C10.433,6.839 10.433,6.807 10.425,6.736 C10.299,6.856 10.177,6.996 10.065,7.151 C10.055,7.165 10.044,7.178 10.034,7.192 C10.033,7.195 10.031,7.197 10.029,7.199 C9.691,7.112 9.367,7.055 9.056,7.023 C8.305,6.944 7.631,7.012 7.032,7.178 C6.951,7.201 6.871,7.224 6.793,7.250 C6.579,7.089 6.235,6.843 5.692,5.978 C5.659,5.926 5.656,6.097 5.626,6.042 C5.468,5.748 5.327,5.300 5.258,4.892 C5.234,4.750 5.218,4.613 5.214,4.489 C5.214,4.489 5.050,4.588 4.873,4.889 C4.806,5.003 4.737,5.146 4.675,5.324 C4.662,5.361 4.649,5.399 4.637,5.439 C4.596,5.570 4.568,5.648 4.539,5.720 C4.530,5.742 4.556,5.482 4.546,5.502 C4.530,5.537 4.502,5.579 4.472,5.627 C4.431,5.692 4.385,5.769 4.356,5.851 C4.349,5.870 4.343,5.889 4.338,5.909 C4.308,6.034 4.259,6.110 4.239,6.266 C4.238,6.270 4.237,6.273 4.235,6.276 C4.234,6.261 4.233,6.230 4.231,6.200 C4.229,6.152 4.225,6.105 4.218,6.123 C4.118,6.397 4.024,6.712 3.948,7.067 C3.838,7.628 3.726,8.395 3.793,9.368 C3.792,9.403 3.795,9.438 3.797,9.472 C3.800,9.514 3.803,9.555 3.802,9.594 C3.461,10.078 3.239,10.494 3.153,10.699 C3.066,10.873 2.979,11.068 2.893,11.284 C2.564,12.102 2.241,13.234 1.969,14.813 C1.969,14.813 2.200,14.061 2.661,13.210 C2.321,14.282 2.055,15.950 2.211,18.452 C2.215,18.397 2.248,18.101 2.322,17.660 C2.360,17.435 2.408,17.173 2.470,16.885 C2.473,16.950 2.477,17.015 2.482,17.081 C2.497,17.315 2.519,17.556 2.548,17.803 C2.565,17.949 2.585,18.097 2.607,18.248 C2.814,19.617 3.265,21.166 4.197,22.811 C5.154,24.502 7.676,28.430 14.005,29.900 C13.826,29.847 13.665,29.780 13.524,29.710 C13.117,29.508 12.879,29.280 12.879,29.280 C12.879,29.280 13.080,29.346 13.407,29.439 C14.081,29.630 15.290,29.931 16.388,29.990 C16.586,30.000 16.781,30.004 16.968,29.996 C16.428,29.900 16.320,29.631 16.320,29.631 C16.320,29.631 21.233,29.917 23.785,27.837 C23.835,27.796 23.885,27.754 23.934,27.711 C23.938,27.709 23.941,27.708 23.945,27.706 C24.327,27.379 24.606,27.021 24.755,26.675 C24.636,26.734 24.518,26.789 24.403,26.841 C24.025,27.251 23.564,27.586 23.055,27.860 C22.590,27.996 22.118,28.072 21.749,28.108 C21.581,28.124 21.434,28.132 21.319,28.133 C21.594,27.872 21.957,27.681 22.387,27.495 C23.024,27.219 23.811,26.955 24.683,26.496 C24.685,26.495 24.687,26.494 24.689,26.493 C24.741,26.466 24.793,26.437 24.845,26.409 C25.598,25.996 26.410,25.432 27.244,24.585 C28.038,23.779 28.427,23.083 28.643,22.448 C28.703,22.270 28.750,22.097 28.788,21.928 C28.852,21.645 28.893,21.372 28.934,21.104 C28.934,21.103 28.934,21.101 28.934,21.100 C28.934,21.102 28.933,21.103 28.933,21.105 C28.926,21.144 28.918,21.183 28.910,21.221 C28.671,22.267 27.797,22.972 26.794,23.585 C26.608,23.698 26.417,23.808 26.226,23.917 C26.339,23.696 26.459,23.491 26.582,23.294 C26.586,23.289 26.589,23.284 26.592,23.279 C26.590,23.284 26.588,23.288 26.586,23.293 C26.573,23.319 26.561,23.344 26.550,23.367 C26.567,23.339 26.585,23.311 26.603,23.283 C26.798,22.973 27.012,22.669 27.232,22.372 C27.760,21.689 28.278,21.118 28.621,20.490 C28.672,20.397 28.726,20.292 28.782,20.177 C28.803,20.134 28.825,20.090 28.846,20.043 C29.220,19.292 29.607,18.267 29.857,17.120 C29.969,16.606 30.053,16.067 30.097,15.517 C30.138,14.992 30.142,14.457 30.097,13.924 Z"/>
</svg>
